src/assets/img/tile3.svg

<?xml version="1.0" encoding="UTF-8"?>
<svg fill="none" viewBox="0 0 106 96" xmlns="http://www.w3.org/2000/svg">
<path d="m56.056 3.2798c9.8784-1.2445 23.634-5.8049 32.833-1.4062 9.5598 4.5711 10.361 12.344 13.857 23.731 3.582 11.668 4.266 24.186 1.758 36.233-2.661 12.787-10.259 11.09-19.284 18.922-9.0637 7.8657-22.507 16.679-37.833 15.043-26.933-2.8746-57.056-41.044-44.414-70.197 4.9513-11.418 14.331-18.936 28.109-22.325 13.348-1.1651 16.659 1.0476 24.974 0z" clip-rule="evenodd" fill="url(#a)" fill-rule="evenodd"/>
<path d="m78.799 42.356h-6.3947v-16.756c-0.0032-2.5693-2.076-4.6514-4.6339-4.6544h-27.803c-2.5579 3e-3 -4.6308 2.0851-4.6339 4.6545v5.5855h-5.0843c-2.3094 0.0025-4.181 1.8824-4.1834 4.2021v25.108c0.0024 2.3198 1.874 4.1996 4.1834 4.2021h14.802c1.7638-0.0053 3.3342-1.123 3.9239-2.7927h16.015c0.5119 0 0.9268-0.4167 0.9268-0.9309v-1.8618c0-1.5424-1.2449-2.7928-2.7803-2.7928h-2.7804v-3.7236h7.4143v9.216c0 1.5939 1.2863 2.8858 2.8729 2.8858h8.1556c1.5868 0 2.873-1.2921 2.873-2.8858v-16.57c1e-4 -1.5938-1.2862-2.8859-2.8729-2.8859zm-31.418 18.14c-9e-4 1.2921-1.0436 2.3393-2.3299 2.3404h-14.802c-1.2864-1e-3 -2.3289-1.0483-2.33-2.3404v-0.4524h19.462v0.4524h1e-4zm0-2.3142h-19.462v-20.48h19.462v20.48zm0-22.342h-19.462v-0.4524c1e-3 -1.2921 1.0436-2.3393 2.33-2.3404h14.802c1.2863 1e-3 2.3289 1.0483 2.3299 2.3404v0.4524zm15.755 22.342c0.5118 0 0.9267 0.4168 0.9267 0.9309v0.9308h-14.828v-1.8617h13.902zm-13.902-1.8619v-3.7236h9.2677v3.7236h-9.2677zm18.536-5.5854h-18.536v-2.7927h18.536v2.7927zm0-5.4923v0.8378h-18.536v-10.692c-0.0026-2.3197-1.8741-4.1996-4.1834-4.2021h-7.8646v-5.5855c0-1.5423 1.2447-2.7927 2.7803-2.7927h27.803c1.5355 0 2.7803 1.2503 2.7803 2.7927v16.766c-1.5468 0.0501-2.7761 1.3219-2.7803 2.8765zm12.048 16.57c0 0.5656-0.4565 1.0241-1.0195 1.0241h-8.1556c-0.563 0-1.0194-0.4585-1.0194-1.0241v-0.8378h10.194v0.8378zm0-2.6996h-10.194v-11.171h10.194v11.171zm0-13.033h-10.194v-0.8378c0-0.5655 0.4564-1.024 1.0194-1.024h8.1556c0.563 0 1.0195 0.4585 1.0195 1.024v0.8378z" fill="#fff"/>
<defs>
<linearGradient id="a" x1="2.2819" x2="104.08" y1="10.082" y2="11.95" gradientUnits="userSpaceOnUse">
<stop stop-color="#255D8B" offset="0"/>
<stop stop-color="#3A80BA" offset="1"/>
</linearGradient>
</defs>
</svg>

<svg width="106" height="96" viewBox="0 0 106 96" fill="none" xmlns="http://www.w3.org/2000/svg">
<path fill-rule="evenodd" clip-rule="evenodd" d="M56.0558 3.27984C65.9342 2.03532 79.6894 -2.52504 88.8887 1.87365C98.4485 6.44475 99.2501 14.2177 102.746 25.6048C106.328 37.2732 107.012 49.7904 104.504 61.8378C101.843 74.6245 94.2446 72.9275 85.22 80.7593C76.1563 88.625 62.7132 97.4379 47.3866 95.8021C20.4536 92.9275 -9.66955 54.7583 2.97238 25.6048C7.92371 14.1866 17.3033 6.66872 31.0815 3.27984C44.429 2.11474 47.7409 4.32739 56.0558 3.27984Z" fill="url(#paint0_linear)"/>
<path d="M78.7991 42.3563H72.4044V25.5999C72.4012 23.0306 70.3284 20.9485 67.7705 20.9455H39.9672C37.4093 20.9485 35.3364 23.0306 35.3333 25.6V31.1855H30.249C27.9396 31.188 26.068 33.0679 26.0656 35.3876V60.496C26.068 62.8158 27.9396 64.6956 30.249 64.6981H45.0514C46.8152 64.6928 48.3856 63.5751 48.9753 61.9054H64.9901C65.502 61.9054 65.9169 61.4887 65.9169 60.9745V59.1127C65.9169 57.5703 64.672 56.3199 63.1366 56.3199H60.3562V52.5963H67.7705V61.8123C67.7705 63.4062 69.0568 64.6981 70.6434 64.6981H78.799C80.3858 64.6981 81.672 63.406 81.672 61.8123V45.2422C81.6721 43.6484 80.3858 42.3563 78.7991 42.3563ZM47.3814 60.496C47.3805 61.7881 46.3378 62.8353 45.0515 62.8364H30.249C28.9626 62.8354 27.9201 61.7881 27.919 60.496V60.0436H47.3813V60.496H47.3814ZM47.3814 58.1818H27.9191V37.7018H47.3814V58.1818ZM47.3814 35.84H27.9191V35.3876C27.9201 34.0955 28.9627 33.0483 30.2491 33.0472H45.0515C46.3378 33.0482 47.3804 34.0955 47.3814 35.3876V35.84ZM63.1366 58.1818C63.6484 58.1818 64.0633 58.5986 64.0633 59.1127V60.0435H49.2349V58.1818H63.1366ZM49.2349 56.3199V52.5963H58.5026V56.3199H49.2349ZM67.7705 50.7345H59.4295H49.2349V47.9418H67.7705V50.7345ZM67.7705 45.2422V46.08H49.2349V35.3876C49.2323 33.0679 47.3608 31.188 45.0515 31.1855H37.1869V25.6C37.1869 24.0577 38.4316 22.8073 39.9672 22.8073H67.7705C69.306 22.8073 70.5508 24.0576 70.5508 25.6V42.3657C69.004 42.4158 67.7747 43.6876 67.7705 45.2422ZM79.8185 61.8123C79.8185 62.3779 79.362 62.8364 78.799 62.8364H70.6434C70.0804 62.8364 69.624 62.3779 69.624 61.8123V60.9745H79.8185V61.8123ZM79.8185 59.1127H69.624V47.9418H79.8185V59.1127ZM79.8185 46.08H69.624V45.2422C69.624 44.6767 70.0804 44.2182 70.6434 44.2182H78.799C79.362 44.2182 79.8185 44.6767 79.8185 45.2422V46.08Z" fill="white"/>
<defs>
<linearGradient id="paint0_linear" x1="2.28194" y1="10.0823" x2="104.079" y2="11.9505" gradientUnits="userSpaceOnUse">
<stop stop-color="#255D8B"/>
<stop offset="1" stop-color="#3A80BA"/>
</linearGradient>
</defs>
</svg>
